!! 00000] TT[WS
!!!OTL: Xiaojie suanming
!!!ARE: Asia, China, Shanxi Jinbei
!! Ethnic Group: Han
!! WII, 169 (2)
!!!SCT: J0655
!!!YEM: Copyright 1995, estate of Helmut Schaffrath.
**kern
*ICvox
*Ivox
*M2/4
*k[b-e-]
*B-:
{8bb-
8ddd
8ccc
8ddd
=1
8bb-
8gg
4ff
=2
8ff
8r
8ddd
8fff
=3
16ccc
16ddd
16bb-
16gg
4ff}
=4
{16gg
16ff
16gg
16bb-
16ccc
16ddd
16bb-
16r
=5
16gg
16ff
16gg
16bb-
4ff
=6
16bb-
16gg
16ff
16bb-
8bb-
8dd
=7
8.ff
16dd
16ff
16gg
16dd
16cc
=8
2b-}
==
!!!AGN: Xiaodiao, Qingge, Sichun
!!!ONB: ESAC (Essen Associative Code) Database: CHINA
!!!AMT: simple duple
!!!AIN: vox
!!!EED: Helmut Schaffrath
!!!EEV: 1.0
*-
